icons/svg/seamark/topmark_oblique_black_sphere.svg

<?xml version="1.0" encoding="UTF-8" standalone="no"?>
<svg
   xmlns:dc="http://purl.org/dc/elements/1.1/"
   xmlns:cc="http://creativecommons.org/ns#"
   xmlns:rdf="http://www.w3.org/1999/02/22-rdf-syntax-ns#"
   xmlns:svg="http://www.w3.org/2000/svg"
   xmlns="http://www.w3.org/2000/svg"
   xmlns:sodipodi="http://sodipodi.sourceforge.net/DTD/sodipodi-0.dtd"
   xmlns:inkscape="http://www.inkscape.org/namespaces/inkscape"
   width="580"
   height="580"
   id="svg2"
   version="1.1"
   inkscape:version="0.48.4 r9939"
   sodipodi:docname="topmark_oblique_yellow_sphere.svg">
  <defs
     id="defs13">
    <inkscape:path-effect
       effect="gears"
       id="path-effect3774"
       is_visible="true"
       teeth="6"
       phi="-1.2" />
    <inkscape:path-effect
       effect="bend_path"
       id="path-effect3772"
       is_visible="false"
       bendpath="m 95.790098,316.51174 c 144.429032,-206.42506 223.313032,-11.7428 339.548092,0"
       prop_scale="1.19"
       scale_y_rel="false"
       vertical="false"
       bendpath-nodetypes="cc" />
  </defs>
  <sodipodi:namedview
     pagecolor="#ffffff"
     bordercolor="#666666"
     borderopacity="1"
     objecttolerance="10"
     gridtolerance="10"
     guidetolerance="10"
     inkscape:pageopacity="0"
     inkscape:pageshadow="2"
     inkscape:window-width="1920"
     inkscape:window-height="1004"
     id="namedview11"
     showgrid="false"
     inkscape:zoom="0.69420069"
     inkscape:cx="409.77594"
     inkscape:cy="348.68408"
     inkscape:window-x="1680"
     inkscape:window-y="0"
     inkscape:window-maximized="1"
     inkscape:current-layer="svg2"
     inkscape:snap-object-midpoints="true"
     inkscape:snap-bbox="true" />
  <metadata
     id="metadata2975">image/svg+xmlen<rdf:RDF>
  <cc:Work
     rdf:about="">
    <dc:format>image/svg+xml</dc:format>
    <dc:type
       rdf:resource="http://purl.org/dc/dcmitype/StillImage" />
    <dc:title></dc:title>
  </cc:Work>
</rdf:RDF>
</metadata>
  <path
     sodipodi:type="inkscape:offset"
     inkscape:radius="15.584549"
     inkscape:original="M 379.15625 15.40625 C 361.19795 15.40625 345.12506 23.317194 334.15625 35.84375 C 334.11735 35.88821 334.07005 35.92417 334.03125 35.96875 C 323.05131 46.793399 319.15625 58.387818 319.15625 75.0625 C 319.15625 78.77598 319.50886 82.16112 320.15625 85.6875 L 320.25 85.71875 C 324.08149 107.36857 339.55452 124.99242 359.96875 131.90625 L 269.75 519.78125 L 293.375 525.21875 L 374.625 134.90625 C 376.129 135.01948 377.62335 135.0625 379.15625 135.0625 C 398.72395 135.0625 416.11255 125.67795 427.03125 111.15625 C 427.04495 111.13815 427.0489 111.11195 427.0625 111.09375 C 427.08 111.07055 427.1076 111.05455 427.125 111.03125 C 427.5641 110.44408 427.98855 109.85356 428.40625 109.25 C 428.53395 109.06585 428.65565 108.87315 428.78125 108.6875 C 429.32185 107.88885 429.84145 107.07555 430.34375 106.25 C 430.84405 105.42756 431.32015 104.59788 431.78125 103.75 C 432.23825 102.90972 432.67645 102.05153 433.09375 101.1875 C 433.10965 101.1543 433.14035 101.12695 433.15625 101.09375 C 433.56105 100.25162 433.9466 99.39471 434.3125 98.53125 C 434.69 97.64036 435.0401 96.72487 435.375 95.8125 C 435.7122 94.89385 436.0197 93.970412 436.3125 93.03125 C 436.6047 92.094082 436.8782 91.143824 437.125 90.1875 C 437.1544 90.073281 437.18995 89.958232 437.21875 89.84375 C 438.40035 85.148535 439.03125 80.24946 439.03125 75.1875 C 439.03125 68.721677 439.73375 69.568513 438.03125 64.53125 C 432.98025 36.595405 408.54785 15.40625 379.15625 15.40625 z "
     style="font-size:medium;font-style:normal;font-variant:normal;font-weight:normal;font-stretch:normal;text-indent:0;text-align:start;text-decoration:none;line-height:normal;letter-spacing:normal;word-spacing:normal;text-transform:none;direction:ltr;block-progression:tb;writing-mode:lr-tb;text-anchor:start;baseline-shift:baseline;opacity:0.42608696;color:#000000;fill:#acd8f3;fill-opacity:1;fill-rule:nonzero;stroke:#a35151;stroke-width:0;stroke-linecap:round;stroke-linejoin:miter;stroke-miterlimit:4;stroke-opacity:1;stroke-dasharray:none;stroke-dashoffset:0;marker:none;visibility:visible;display:inline;overflow:visible;enable-background:accumulate;font-family:Sans;-inkscape-font-specification:Sans"
     id="path4149"
     d="m 379.15625,-0.1875 c -22.1939,0 -42.27843,9.7170837 -56.0625,25.0625 -0.0639,0.06304 -0.12389,0.124271 -0.1875,0.1875 -0.15221,0.170658 -0.31811,0.327964 -0.46875,0.5 a 15.586107,15.586107 0 0 0 0,0.03125 c 1.34141,-1.533135 1.27569,-1.489008 -0.15625,0.15625 -13.02181,13.326195 -18.71875,30.614874 -18.71875,49.3125 0,4.700024 0.46424,9.157433 1.25,13.4375 a 15.586107,15.586107 0 0 0 0.78125,2.75 c 4.60429,21.1883 18.05202,38.94339 36.34375,49.375 l -87.375,375.625 a 15.586107,15.586107 0 0 0 11.6875,18.71875 l 23.625,5.4375 a 15.586107,15.586107 0 0 0 18.75,-12 l 78.75,-378.25 c 21.00904,-2.29633 39.5781,-13.22665 51.78125,-29.21875 0.0672,-0.0881 0.15194,-0.16163 0.21875,-0.25 0.0539,-0.072 0.0371,-0.0493 0.0937,-0.125 0.0159,-0.0212 0.0152,-0.01 0.0312,-0.0312 0.0716,-0.0947 0.0251,-0.0655 0.0937,-0.15625 0.0172,-0.023 0.0143,-0.009 0.0312,-0.0312 0.22557,-0.30169 0.14989,-0.21012 0.34375,-0.46875 0.42439,-0.57762 0.84539,-1.16535 1.25,-1.75 0.37489,-0.54061 0.51527,-0.7551 0.46875,-0.6875 -0.001,0.002 0.002,-0.034 0,-0.0312 0.68963,-1.01966 1.35273,-2.05005 1.96875,-3.0625 0.63737,-1.04777 1.23891,-2.10152 1.8125,-3.15625 0.58712,-1.07952 1.13836,-2.14645 1.65625,-3.21875 a 15.586107,15.586107 0 0 0 0.0312,-0.0625 c 0.0192,-0.0401 0.0117,-0.0216 0.0312,-0.0625 0.006,-0.0126 0.0252,-0.0186 0.0312,-0.0312 0.51236,-1.06751 0.98767,-2.12598 1.4375,-3.1875 0.5234,-1.23522 0.96025,-2.39272 1.34375,-3.4375 0.44524,-1.212981 0.83587,-2.403402 1.1875,-3.53125 0.36072,-1.156918 0.71251,-2.327403 1.03125,-3.5625 a 15.586107,15.586107 0 0 0 0,-0.03125 c -0.0968,0.376229 -0.0414,0.255145 0.125,-0.40625 1.48734,-5.910121 2.28125,-12.111864 2.28125,-18.46875 0,-2.6685 0.21819,-3.27102 0.125,-6.34375 -0.0779,-2.570271 -0.75647,-5.288627 -1.53125,-7.8125 C 446.55596,26.154968 415.7839,-0.1875 379.15625,-0.1875 z" />
  <path
     style="font-size:medium;font-style:normal;font-variant:normal;font-weight:normal;font-stretch:normal;text-indent:0;text-align:start;text-decoration:none;line-height:normal;letter-spacing:normal;word-spacing:normal;text-transform:none;direction:ltr;block-progression:tb;writing-mode:lr-tb;text-anchor:start;baseline-shift:baseline;color:#000000;fill:#000000;fill-opacity:1;stroke:#a35151;stroke-width:0;stroke-linecap:round;stroke-linejoin:miter;stroke-miterlimit:4;stroke-opacity:1;stroke-dasharray:none;marker:none;visibility:visible;display:inline;overflow:visible;enable-background:accumulate;font-family:Sans;-inkscape-font-specification:Sans"
     d="m 364.824,110.85247 -95.10585,408.9223 23.62132,5.42461 85.57803,-411.09456 z"
     id="path3761"
     inkscape:connector-curvature="0"
     sodipodi:nodetypes="ccccc" />
  <path
     sodipodi:type="arc"
     style="color:#000000;fill:#000000;fill-opacity:1;fill-rule:nonzero;stroke:#a35151;stroke-width:0;stroke-linecap:round;stroke-linejoin:miter;stroke-miterlimit:4;stroke-opacity:1;stroke-dasharray:none;stroke-dashoffset:0;marker:none;visibility:visible;display:inline;overflow:visible;enable-background:accumulate"
     id="path4063"
     sodipodi:cx="340.46414"
     sodipodi:cy="55.170837"
     sodipodi:rx="59.842239"
     sodipodi:ry="59.842239"
     d="m 400.30638,55.170837 a 59.842239,59.842239 0 1 1 -119.68448,0 59.842239,59.842239 0 1 1 119.68448,0 z"
     transform="translate(38.680876,20.042593)" />
</svg>

<svg width="580" height="580" viewBox="0 0 580 580" fill="none" xmlns="http://www.w3.org/2000/svg">
<g clip-path="url(#clip0)">
<path opacity="0.426087" d="M379.156 -0.1875C356.962 -0.1875 336.878 9.52958 323.094 24.875C323.03 24.938 322.97 24.9993 322.906 25.0625C322.754 25.2332 322.588 25.3905 322.438 25.5625C322.438 25.5729 322.438 25.5833 322.438 25.5938C323.779 24.0606 323.713 24.1047 322.281 25.75C309.259 39.0762 303.563 56.3649 303.563 75.0625C303.563 79.7625 304.027 84.2199 304.813 88.5C304.988 89.4387 305.25 90.3592 305.594 91.25C310.198 112.438 323.646 130.193 341.938 140.625L254.563 516.25C254.098 518.247 254.033 520.315 254.369 522.337C254.705 524.359 255.437 526.295 256.523 528.034C257.609 529.773 259.027 531.28 260.696 532.47C262.365 533.66 264.252 534.509 266.25 534.969L289.875 540.406C291.895 540.871 293.988 540.928 296.031 540.574C298.073 540.22 300.024 539.462 301.771 538.344C303.517 537.227 305.022 535.772 306.199 534.066C307.376 532.359 308.201 530.435 308.625 528.406L387.375 150.156C408.384 147.86 426.953 136.93 439.156 120.938C439.223 120.849 439.308 120.776 439.375 120.688C439.429 120.616 439.412 120.638 439.469 120.562C439.485 120.541 439.484 120.553 439.5 120.531C439.572 120.437 439.525 120.466 439.594 120.375C439.611 120.352 439.608 120.366 439.625 120.344C439.85 120.042 439.775 120.134 439.969 119.875C440.393 119.297 440.814 118.71 441.219 118.125C441.593 117.584 441.734 117.37 441.687 117.438C441.686 117.44 441.689 117.404 441.687 117.406C442.377 116.387 443.04 115.356 443.656 114.344C444.293 113.296 444.895 112.242 445.469 111.188C446.056 110.108 446.607 109.041 447.125 107.969C447.135 107.948 447.146 107.927 447.156 107.906C447.175 107.866 447.168 107.885 447.187 107.844C447.193 107.831 447.212 107.825 447.218 107.813C447.731 106.745 448.206 105.687 448.656 104.625C449.179 103.39 449.616 102.232 450 101.188C450.445 99.9747 450.836 98.7843 451.187 97.6564C451.548 96.4995 451.9 95.329 452.218 94.0939C452.218 94.0835 452.218 94.0731 452.218 94.0627C452.122 94.4389 452.177 94.3178 452.343 93.6564C453.831 87.7463 454.625 81.5446 454.625 75.1877C454.625 72.5192 454.843 71.9167 454.75 68.8439C454.672 66.2737 453.993 63.5553 453.218 61.0314C446.556 26.155 415.784 -0.1875 379.156 -0.1875Z" fill="#ACD8F3"/>
<path d="M364.824 110.852L269.718 519.774L293.34 525.198L378.918 114.104L364.824 110.852Z" fill="black"/>
<path d="M438.987 75.2133C438.987 91.0845 432.682 106.306 421.46 117.528C410.237 128.751 395.016 135.056 379.145 135.056C363.274 135.056 348.053 128.751 336.83 117.528C325.608 106.306 319.303 91.0845 319.303 75.2133C319.303 59.3422 325.608 44.1211 336.83 32.8985C348.053 21.6759 363.274 15.3711 379.145 15.3711C395.016 15.3711 410.237 21.6759 421.46 32.8985C432.682 44.1211 438.987 59.3422 438.987 75.2133V75.2133Z" fill="black"/>
</g>
<defs>
<clipPath id="clip0">
<path d="M0 0H580V580H0V0Z" fill="white"/>
</clipPath>
</defs>
</svg>
